X:11
T:Title Unknown
S:Flos Headford <flos:madasafish.com> tradtunes 2010-4-7
R:bour 32
C:author not known
O:France
M:4/4
L:1/8
Q:2/4=90
K:F
|: GABG A2A2 | GABG A2A2 | GABc d2cB | AcBA GABA |\ 
GABG A2A2 | GABG A2A2 | GABc d2cB | AcBA G4 :|] 
|: fdfd f2d2 | ecec e2c2 | fedc- c2de | defg- g4 |\ 
gfed- d2B2 | fedc- c2A2 | GBcd- d2cB | AcBA G4 :|] 

